X:167
%%topspace -50
T:The Bonny Cuckoo
M:3/4
L:1/4
K:D
d/2e/2 | "D"f3/e/d | d3/e/d | "G"B2 "A"A | "D/F#"F2 A | "G"B/A/ B/c/ d | "A"e2 d/e/ | "D"f2 e | d2 d | 
"G"B2 B | "A"A3 | "Bm"F3/A/ F/E/ | D2 d | "G"B2 d | "A"A2 d/c/ | "D"d3 | d2 e ||
"D"f3/e/d | f/e/ f/g/ a | "G"b2 "A"a | "D"f2 e/d/ | "A"e2 a | "Bm"f2 e/d/ | "G"d2 B | B2 "A"A | 
"D"F2 E | D2 d | "G"B2 d | "D"A2 a | "G"b/a/ g/f/ e/d/ | "A"e2 d/c/ | "D"d3- | d3 |]

